icons/svg/video-layout-stack_12.svg

<svg width="12" height="12" viewBox="0 0 12 12" fill="none" xmlns="http://www.w3.org/2000/svg">
<path fill-rule="evenodd" clip-rule="evenodd" d="M10.5 11H1.5C0.671573 11 -7.24232e-08 10.3284 0 9.5L6.1196e-07 2.5C6.84383e-07 1.67157 0.671574 1 1.5 1H10.5C11.3284 1 12 1.67157 12 2.5V9.5C12 10.3284 11.3284 11 10.5 11ZM10.5 10C10.7761 10 11 9.77614 11 9.5V5H1V9.5C1 9.77614 1.22386 10 1.5 10H10.5ZM4.66667 4H7.33333V2H4.66667V4ZM3.66667 4V2H1.5C1.22386 2 1 2.22386 1 2.5V4H3.66667ZM11 4H8.33333V2H10.5C10.7761 2 11 2.22386 11 2.5V4Z" fill="#121212"/>
</svg>

<?xml version="1.0" encoding="utf-8"?>
<!-- Generator: Adobe Illustrator 25.0.0, SVG Export Plug-In . SVG Version: 6.00 Build 0)  -->
<svg version="1.1" id="Layer_1" xmlns="http://www.w3.org/2000/svg" xmlns:xlink="http://www.w3.org/1999/xlink" x="0px" y="0px"
	 viewBox="0 0 12 12" style="enable-background:new 0 0 12 12;" xml:space="preserve">
<style type="text/css">
	.st0{fill-rule:evenodd;clip-rule:evenodd;fill:#121212;}
</style>
<path class="st0" d="M10.5,11h-9C0.7,11,0,10.3,0,9.5l0-7C0,1.7,0.7,1,1.5,1h9C11.3,1,12,1.7,12,2.5v7C12,10.3,11.3,11,10.5,11z
	 M10.5,10c0.3,0,0.5-0.2,0.5-0.5V5H1v4.5C1,9.8,1.2,10,1.5,10H10.5z M4.7,4h2.7V2H4.7V4z M3.7,4V2H1.5C1.2,2,1,2.2,1,2.5V4H3.7z
	 M11,4H8.3V2h2.2C10.8,2,11,2.2,11,2.5V4z"/>
</svg>
